Dominus_Dark_Funeral/scalable/apps/libreoffice-impress.svg

<svg xmlns="http://www.w3.org/2000/svg" xmlns:xlink="http://www.w3.org/1999/xlink" width="48" height="48" viewBox="0 0 12.7 12.7"><defs><linearGradient id="d"><stop offset="0"/><stop offset="1" stop-opacity=".02"/></linearGradient><linearGradient id="a"><stop offset="0" stop-color="#ffe6d5"/><stop offset="1" stop-color="#d38d5f"/></linearGradient><linearGradient id="c"><stop offset="0" stop-color="#fff"/><stop offset="1" stop-color="#535d6c"/></linearGradient><radialGradient xlink:href="#a" id="e" cx="9.68" cy="2.68" fx="9.68" fy="2.68" r="5.35" gradientTransform="matrix(.06616 1.06853 -1.16839 .07235 12.17 -8.48)" gradientUnits="userSpaceOnUse"/><radialGradient xlink:href="#c" id="b" gradientUnits="userSpaceOnUse" gradientTransform="matrix(.06616 1.06853 -1.16839 .07235 -3.7 -8.48)" cx="9.68" cy="2.68" fx="9.68" fy="2.68" r="5.35"/><linearGradient xlink:href="#d" id="f" gradientUnits="userSpaceOnUse" x1="1.5" y1="2" x2="14.02" y2="9.23"/></defs><path d="M6.35.1C4.81.1 3.57.38 2.66.96A3.67 3.67 0 0 0 1 4.22c0 1.91 1.54 4.47 2.01 5.2.54.85 1.13 1.61 1.65 2.16.68.7 1.21 1.03 1.69 1.03s1.01-.33 1.69-1.03a15.2 15.2 0 0 0 1.65-2.15c.47-.74 2-3.3 2-5.21 0-1.42-.57-2.54-1.65-3.25A6.75 6.75 0 0 0 6.35.1z" fill="url(#e)"/><path d="M7.55 12c.16-.14.31-.23.49-.42a15.2 15.2 0 0 0 1.65-2.15 21 21 0 0 0 1.18-2.17c.22-.48.42-1 .57-1.52.15-.52.25-1.04.25-1.52 0-.25-.04-.48-.07-.71L9.88 1.78H2.6v5.25z" opacity=".5" fill="url(#f)"/><path d="M1.04 3.9c0 .1-.04.2-.04.32 0 1.91 1.54 4.47 2.01 5.2.54.85 1.13 1.61 1.65 2.16.68.7 1.21 1.03 1.69 1.03s1.01-.33 1.69-1.03a15.2 15.2 0 0 0 1.65-2.15c.47-.74 2-3.3 2-5.21 0-.11-.02-.21-.03-.32a5.5 5.5 0 0 1-.21 1.3c-.15.53-.36 1.05-.58 1.53-.44.97-.95 1.8-1.18 2.17a15.2 15.2 0 0 1-1.65 2.15 4.9 4.9 0 0 1-.92.78c-.28.17-.53.25-.77.25s-.5-.08-.77-.25a4.76 4.76 0 0 1-.92-.78A14.41 14.41 0 0 1 3.01 8.9a19.2 19.2 0 0 1-1.18-2.17c-.22-.48-.43-1-.58-1.52a5.66 5.66 0 0 1-.21-1.31z" opacity=".5"/><path d="M5.89 7.03v.25l-1.41.95h.69l1.04-.84h.06l1.03.84H8l-1.4-.96v-.24zM2.6 1.78v5.25h7.28V1.78zm.35.24h6.58c.07 0 .12.05.12.11v4.55c0 .06-.05.11-.12.11H2.95a.12.12 0 0 1-.12-.11V2.13c0-.06.05-.11.12-.11zm.23.35v.48H9.3v-.48zm1.18.84v.48h3.76V3.2zM4 4.17v.47h1.76v-.47zm-.6 0c-.12 0-.23.1-.23.24 0 .13.1.23.24.23.13 0 .23-.1.23-.23 0-.14-.1-.24-.23-.24zM4 5v.48h1.76V5zm-.6 0c-.12 0-.23.1-.23.24a.24.24 0 1 0 .47 0c0-.13-.1-.24-.23-.24zm.6.84v.48h1.76v-.48zm-.6 0c-.12 0-.23.1-.23.24a.24.24 0 1 0 .47 0c0-.13-.1-.24-.23-.24z" fill="#fff"/><path d="M6.24 4.17v2.15h3.05V4.17zm.23.23h2.59v1.68H6.47zm.12.24v.12h2.35v-.12zm0 .36v.12h2.35V5zm0 .36v.12h2.35v-.12zm0 .36v.12h2.35v-.12z" fill="#fff" opacity=".6"/><path d="M8.76 4.52a.18.18 0 0 0-.12.06l-.76.77-.34-.36a.18.18 0 0 0-.25 0l-.65.66a.18.18 0 1 0 .25.26l.52-.54.35.36a.18.18 0 0 0 .25 0l.88-.9a.18.18 0 0 0-.13-.3z" fill="#37483e"/></svg>

<?xml version="1.0" encoding="UTF-8" standalone="no"?>
<svg
   xmlns:dc="http://purl.org/dc/elements/1.1/"
   xmlns:cc="http://creativecommons.org/ns#"
   xmlns:rdf="http://www.w3.org/1999/02/22-rdf-syntax-ns#"
   xmlns:svg="http://www.w3.org/2000/svg"
   xmlns="http://www.w3.org/2000/svg"
   xmlns:xlink="http://www.w3.org/1999/xlink"
   xmlns:sodipodi="http://sodipodi.sourceforge.net/DTD/sodipodi-0.dtd"
   xmlns:inkscape="http://www.inkscape.org/namespaces/inkscape"
   width="48"
   height="48"
   viewBox="0 0 12.7 12.7"
   version="1.1"
   id="svg34"
   sodipodi:docname="libreoffice-impress.svg"
   inkscape:version="0.92.4 (5da689c313, 2019-01-14)">
  <metadata
     id="metadata38">
    <rdf:RDF>
      <cc:Work
         rdf:about="">
        <dc:format>image/svg+xml</dc:format>
        <dc:type
           rdf:resource="http://purl.org/dc/dcmitype/StillImage" />
        <dc:title></dc:title>
      </cc:Work>
    </rdf:RDF>
  </metadata>
  <sodipodi:namedview
     pagecolor="#ffffff"
     bordercolor="#666666"
     borderopacity="1"
     objecttolerance="10"
     gridtolerance="10"
     guidetolerance="10"
     inkscape:pageopacity="0"
     inkscape:pageshadow="2"
     inkscape:window-width="1112"
     inkscape:window-height="480"
     id="namedview36"
     showgrid="false"
     inkscape:zoom="4.9166667"
     inkscape:cx="2.1355932"
     inkscape:cy="24"
     inkscape:window-x="0"
     inkscape:window-y="25"
     inkscape:window-maximized="0"
     inkscape:current-layer="svg34" />
  <defs
     id="defs20">
    <linearGradient
       id="d">
      <stop
         offset="0"
         id="stop2" />
      <stop
         offset="1"
         stop-opacity=".02"
         id="stop4" />
    </linearGradient>
    <linearGradient
       id="a">
      <stop
         offset="0"
         stop-color="#ffe6d5"
         id="stop7" />
      <stop
         offset="1"
         stop-color="#d38d5f"
         id="stop9" />
    </linearGradient>
    <linearGradient
       id="c">
      <stop
         offset="0"
         stop-color="#fff"
         id="stop12" />
      <stop
         offset="1"
         stop-color="#535d6c"
         id="stop14" />
    </linearGradient>
    <radialGradient
       xlink:href="#a"
       id="e"
       cx="9.68"
       cy="2.68"
       fx="9.68"
       fy="2.68"
       r="5.35"
       gradientTransform="matrix(0.06616,1.06853,-1.16839,0.07235,12.17,-8.48)"
       gradientUnits="userSpaceOnUse" />
    <radialGradient
       xlink:href="#c"
       id="b"
       gradientUnits="userSpaceOnUse"
       gradientTransform="matrix(.06616 1.06853 -1.16839 .07235 -3.7 -8.48)"
       cx="9.68"
       cy="2.68"
       fx="9.68"
       fy="2.68"
       r="5.35" />
    <linearGradient
       xlink:href="#d"
       id="f"
       gradientUnits="userSpaceOnUse"
       x1="1.5"
       y1="2"
       x2="14.02"
       y2="9.23" />
  </defs>
  <path
     d="M 6.35,0.1 C 4.81,0.1 3.57,0.38 2.66,0.96 A 3.67,3.67 0 0 0 1,4.22 c 0,1.91 1.54,4.47 2.01,5.2 0.54,0.85 1.13,1.61 1.65,2.16 0.68,0.7 1.21,1.03 1.69,1.03 0.48,0 1.01,-0.33 1.69,-1.03 A 15.2,15.2 0 0 0 9.69,9.43 c 0.47,-0.74 2,-3.3 2,-5.21 0,-1.42 -0.57,-2.54 -1.65,-3.25 A 6.75,6.75 0 0 0 6.35,0.1 Z"
     id="path22"
     style="fill:url(#e)"
     inkscape:connector-curvature="0" />
  <path
     d="M 7.55,12 C 7.71,11.86 7.86,11.77 8.04,11.58 A 15.2,15.2 0 0 0 9.69,9.43 21,21 0 0 0 10.87,7.26 c 0.22,-0.48 0.42,-1 0.57,-1.52 0.15,-0.52 0.25,-1.04 0.25,-1.52 0,-0.25 -0.04,-0.48 -0.07,-0.71 L 9.88,1.78 H 2.6 v 5.25 z"
     id="path24"
     style="opacity:0.5;fill:url(#f)"
     inkscape:connector-curvature="0" />
  <path
     d="M 1.04,3.9 C 1.04,4 1,4.1 1,4.22 c 0,1.91 1.54,4.47 2.01,5.2 0.54,0.85 1.13,1.61 1.65,2.16 0.68,0.7 1.21,1.03 1.69,1.03 0.48,0 1.01,-0.33 1.69,-1.03 A 15.2,15.2 0 0 0 9.69,9.43 c 0.47,-0.74 2,-3.3 2,-5.21 0,-0.11 -0.02,-0.21 -0.03,-0.32 A 5.5,5.5 0 0 1 11.45,5.2 C 11.3,5.73 11.09,6.25 10.87,6.73 10.43,7.7 9.92,8.53 9.69,8.9 A 15.2,15.2 0 0 1 8.04,11.05 4.9,4.9 0 0 1 7.12,11.83 C 6.84,12 6.59,12.08 6.35,12.08 6.11,12.08 5.85,12 5.58,11.83 A 4.76,4.76 0 0 1 4.66,11.05 14.41,14.41 0 0 1 3.01,8.9 19.2,19.2 0 0 1 1.83,6.73 C 1.61,6.25 1.4,5.73 1.25,5.21 A 5.66,5.66 0 0 1 1.04,3.9 Z"
     id="path26"
     inkscape:connector-curvature="0"
     style="opacity:0.5" />
  <path
     d="M 5.89,7.03 V 7.28 L 4.48,8.23 H 5.17 L 6.21,7.39 H 6.27 L 7.3,8.23 H 8 L 6.6,7.27 V 7.03 Z M 2.6,1.78 V 7.03 H 9.88 V 1.78 Z m 0.35,0.24 h 6.58 c 0.07,0 0.12,0.05 0.12,0.11 V 6.68 C 9.65,6.74 9.6,6.79 9.53,6.79 H 2.95 A 0.12,0.12 0 0 1 2.83,6.68 V 2.13 C 2.83,2.07 2.88,2.02 2.95,2.02 Z M 3.18,2.37 V 2.85 H 9.3 V 2.37 Z M 4.36,3.21 V 3.69 H 8.12 V 3.2 Z M 4,4.17 V 4.64 H 5.76 V 4.17 Z m -0.6,0 c -0.12,0 -0.23,0.1 -0.23,0.24 0,0.13 0.1,0.23 0.24,0.23 0.13,0 0.23,-0.1 0.23,-0.23 0,-0.14 -0.1,-0.24 -0.23,-0.24 z M 4,5 V 5.48 H 5.76 V 5 Z M 3.4,5 C 3.28,5 3.17,5.1 3.17,5.24 a 0.24,0.24 0 1 0 0.47,0 C 3.64,5.11 3.54,5 3.41,5 Z M 4,5.84 V 6.32 H 5.76 V 5.84 Z m -0.6,0 c -0.12,0 -0.23,0.1 -0.23,0.24 a 0.24,0.24 0 1 0 0.47,0 C 3.64,5.95 3.54,5.84 3.41,5.84 Z"
     id="path28"
     inkscape:connector-curvature="0"
     style="fill:#ffffff" />
  <path
     d="M 6.24,4.17 V 6.32 H 9.29 V 4.17 Z M 6.47,4.4 H 9.06 V 6.08 H 6.47 Z M 6.59,4.64 V 4.76 H 8.94 V 4.64 Z M 6.59,5 V 5.12 H 8.94 V 5 Z m 0,0.36 V 5.48 H 8.94 V 5.36 Z m 0,0.36 V 5.84 H 8.94 V 5.72 Z"
     id="path30"
     inkscape:connector-curvature="0"
     style="opacity:0.6;fill:#ffffff" />
  <path
     d="M 8.76,4.52 A 0.18,0.18 0 0 0 8.64,4.58 L 7.88,5.35 7.54,4.99 a 0.18,0.18 0 0 0 -0.25,0 L 6.64,5.65 A 0.18034689,0.18034689 0 1 0 6.89,5.91 L 7.41,5.37 7.76,5.73 a 0.18,0.18 0 0 0 0.25,0 L 8.89,4.83 A 0.18,0.18 0 0 0 8.76,4.53 Z"
     id="path32"
     inkscape:connector-curvature="0"
     style="fill:#37483e" />
</svg>
